X:1
T:Title
%%score { ( 1 3 ) | ( 2 4 ) }
L:1/8
Q:1/4=126
M:6/4
K:Ab
V:1 treble nm="Grand Piano"
V:3 treble 
V:2 bass 
V:4 bass 
V:1
 [CE]4 [CA]2 [CA]4 [Ec]2 | [Ec]4 [DB]2 [CA]6 | [DF]4 [DF]2 [FA]3 [EG] [DF]2 | [DF]4 [CE]2 [CE]6 | %4
w: William~J.~Kirkpatrick * * *||||
 E4 A2 A4 B2 | c4 d2 e6 | d3 c [FB]2 c4 A2 | B3 A [B,EG]2 [A,CEA]6 | %8
w: ||||
 [A,DF]4 [A,DF]2 [A,FA]3 [A,EG] [A,DF]2 | [DF]4 [CE]2 [CE]6 | G4 A2 B6 | A4 B2 c6 | d4 d2 d3 c B2 | %13
w: |||||
 c4 c2 c6 | B2 A2 F2 E4 A2 | A4 G2 [CEA]6 |] %16
w: |||
V:2
 [A,,A,]4 [A,,E,]2 [A,,E,]4 [A,,A,]2 | [E,A,]4 [E,G,]2 [A,,A,]6 | [D,A,]4 [D,A,]2 [D,A,]4 [D,A,]2 | %3
 [A,,A,]4 [A,,A,]2 [A,,A,]6 | [A,C]4 [A,CE]2 [A,CE]4 [A,DE]2 | [A,EA]4 [A,DA]2 [A,CA]6 | %6
 [D,A,]4 [D,A,]2 [E,A,E]4 [E,CE]2 | .D6 z6 | D,4 D,2 D,3 D, D,2 | [A,,A,]4 [A,,A,]2 [A,,A,]6 | %10
 [E,B,E]4 [E,CE]2 [E,DE]6 | [E,CE]4 [E,G,E]2 [A,E]6 | [G,B,E]4 [G,B,E]2 [G,B,E]4 [G,B,E]2 | %13
 [A,E]4 [A,E]2 [A,E]6 | [D,A,]4 [D,A,D]2 [E,A,C]4 [E,CE]2 | [E,CE]4 [E,B,E]2 [A,,A,]6 |] %16
V:3
 x12 | x12 | x12 | x12 | x12 | x12 | .F6 z6 | x12 | x12 | x12 | x12 | x12 | x12 | x12 | .F6 z6 | %15
 x12 |] %16
V:4
 x12 | x12 | x12 | x12 | x12 | x12 | x12 | [E,E]3- [E,CE] E,2 A,,6 | x12 | x12 | x12 | x12 | x12 | %13
 x12 | x12 | x12 |] %16

